X:1
T:RVW2/1/51 Three Days Before Easter
T:RVW2/1/51 Three Days Before Easter
T:Transcribed by Simon Furey and Lewis Jones
C:Transcribed by Simon Furey and Lewis Jones
L:1/8
Q:1/4=69
M:6/8
K:G
V:1 treble 
V:1
"^(Editorial suggestion)" D | GGG GB>A | GEE E2 F/G/ | AAA ABA | GDD D2 B | BAG Bd>B | %6
 AGA B2 B/A/ | GEE EDD | D/G/ G2- G2 |] %9

